X:1
T:Title
%%score { 1 | 2 }
L:1/8
M:6/8
K:F
V:1 treble nm="Grand Piano"
V:2 bass 
V:1
 z3 z2[Q:1/4=69] c | cAB [Ac]AB | cfd cAF | [DFB][DFB][DFB] [EG][EA][EG] |[M:5/8] F-F- F3 | %5
[M:1/8] c |[M:3/4] cA B[Ac] AB | cf dc AF | [DFB][DFB] [DFB][EG] [EA][EG] |[M:5/8] F-F- F3 | %10
[M:1/8] F |[M:3/4] EF G[EG] [EG][EG] | FA A A2 F | EF G[EG] [EG][EG] | FA A A2 A/B/ | cA Bc AB | %16
 cf dc AF | [DFB][DFB] [DFB][CEG] [CEA][B,EG] |[M:5/8] [A,F]-[A,F]- [A,F]3 |] %19
V:2
 z3 z2 [F,A,F] | [F,A,F][F,CF][F,DF] [F,C][F,F][F,CF] | [F,A,F][F,A,F][F,B,F] [F,A,F][F,C][F,A,C] | %3
 B,,B,,B,, [C,C][C,C][C,B,] |[M:5/8] [F,A,]-[F,A,]- [F,A,]3 |[M:1/8] [F,A,F] | %6
[M:3/4] [F,A,F][F,CF] [F,DF][F,C] [F,F][F,CF] | [F,A,F][F,A,F] [F,B,F][F,A,F] [F,C][F,A,C] | %8
 B,,B,, B,,[C,C] [C,C][C,B,] |[M:5/8] [F,A,]-[F,A,]- [F,A,]3 |[M:1/8] [F,A,C] | %11
[M:3/4] [C,G,C][C,A,C] [C,B,C][C,C] [C,C][C,B,] | [F,A,][F,CF] [F,CF] [F,CF]2 [F,A,C] | %13
 [C,G,C][C,A,C] [C,B,C][C,C] [C,C][C,B,] | [F,A,][F,CF] [F,CF] [F,CF]2 [F,A,F] | %15
 [F,A,F][F,CF] [F,DF][F,CF] [F,F][F,G,F] | [F,A,F][F,A,F] [F,B,F][F,A,F] [F,C][F,A,C] | %17
 B,,B,, B,,C, C,C, |[M:5/8] F,-F,- F,3 |] %19

